X:1
T:Bach - Prelude and Fugue in C Major.
%%score { ( 1 4 5 7 ) | ( 2 6 8 9 ) | 3 }
L:1/8
Q:1/4=80
M:4/4
K:C
V:1 treble nm="Organ" snm="Org."
V:4 treble 
V:5 treble 
V:7 treble 
V:2 bass 
V:6 bass 
V:8 bass 
V:9 bass 
V:3 bass 
V:1
"^Praeludium" z8 |"^J.S.Bach\nPrelude and Fugue in C Major\n                      BWV 531" z8 | %2
 z8 | z8 | z8 | z8 | z8 | z8 | z8 | z4 z/ G/c/G/ c/c/e/c/ | G/c/e/c/ G/c/e/c/ G/c/B/c/ G/c/B/c/ | %11
 G/c/E/c/ F/c/G/_B/ A/f/e/g/ f/e/d/f/ | e/e/a/e/ c/e/a/e/ g2 z e | g2 z g g2 z/ c/e/c/ | %14
 e/G/c/G/ c/c/e/c/ e/g/B/d/ c/G/A/c/ | z4 z/ G/c/G/ c/e/g/=B/ | %16
 c/e/c/e/ c/e/c/e/ c/e/c/e/ c/e/c/e/ | c/g/e/g/ c/g/e/g/ c/g/e/g/ c/e/c/e/ | %18
 f2 z/ A/c/A/- c z z/ A/c/A/- | c z z2 z4 | a z z2 z4 | z4 z/ a/g/a/ f/e/d/c/ | %22
 =B/g/f/g/ e/d/c/B/ A/f/e/f/ d/c/B/A/ | G/e/d/e/ c/B/A/G/ ^F/G/F/G/ A/B/G/A/ | %24
 B z z/ d/c/B/ c z z/ e/d/c/ | B z z/ B/A/G/ c z z/ A/G/F/ | E z z/ ^F/E/D/ C z z/ e/d/c/ | %27
 g z z2 g z z2 | z/ c/f/c/ a/f/a/f/ c'/g/a/_b/ a/g/f/e/ | %29
 (3f/g/a/ (3e/f/g/ (3d/e/f/ (3c/d/e/ (3_B/c/d/ (3A/B/c/ (3G/A/B/ z/ B/ | %30
 A/c/_B/d/ c/e/d/f/ e/g/f/a/ g/_b/a/g/ | a/A/g/G/ f/F/e/E/ d/D/c/C/ _B/A/B/c/ | %32
 A z x2 x/ C/D/E/ F z/4 G/4F/4E/4 | d2 z d e2 z e- | %34
 ed- dd- d-d/4e/4d/4c/4 B/4c/4B/4A/4G/4A/4G/4=F/4 | %35
 g-g/4a/4g/4f/4 e/4f/4e/4d/4c/4d/4c/4B/4 a-a/4b/4a/4g/4 ^f/4g/4f/4e/4d/4e/4d/4c/4 | %36
 b-b/4c'/4b/4a/4 g/4a/4g/4=f/4e/4f/4e/4d/4 c/4d/4c/4B/4A/4B/4A/4G/4 F/4G/4F/4E/4D/4E/4D/4C/4 | %37
 z d c2- c/e/d/c/ MB>c | %38
 c2- c/4c/4B/4A/4G/4F/4E/4D/4 C/4G/4F/4E/4D/4C/4x/4 x/4 x2[Q:1/4=80][Q:1/4=75][Q:1/4=70] | %39
 !fermata![CEGc]8 |][M:4/4]!mp!"^Fuga"[Q:1/4=80] z/ g/G/g/ g/a/g/a/ f/f/F/f/ f/g/f/g/ | %41
 e/G/c/d/ e/G/c/d/ e/f/d/e/ c/d/e/f/ | g>f e/f/e/f/ g>g d/e/d/e/ | f/g/f/e/ f/g/f/e/ f>c d/e/c/d/ | %44
 e/g/c/d/ e/g/c/d/ e/g/c/d/ e/d/e/f/ | d>g bg a>f af | ge/f/ ge/f/ g>f g/a/g/a/ | d2- d2- de Pf>e | %48
 e z/ A/ A2- AG- G2- | GF/E/ FA/G/ FGAd | z/ G/A/B/ c/d/e/A/ d/^F/G/A/ G/d/c/B/ | %51
 c2- c/e/d/c/ B2 A2 | G2 F2 E2 D2 | C/!mf! c/C/c/ c/d/c/d/ B/A/B/c/ B/c/B/c/ | %54
 A/ a/A/a/ a/b/a/b/ g/f/g/a/ g/a/g/a/ | f/e/f/g/ f/d/e/f/ e/f/e/d/ c>B | A2 d2 e>c ec | %57
 dB/c/ dB/c/ dc B2 | A3 d- d/d/c/B/ c2- | c/c/B/A/ B2- B/B/A/G/ A2- | %60
 A/A/G/^F/ G2- G/G/c/B/ Ad/c/ | Bc d>d c/d/c/B/ A/B/c/d/ | B z z e e z z d | %63
 z/ g/G/g/ g/a/g/a/ f/f/F/f/ f/g/f/g/ | e/G/c/d/ e/G/c/d/ e/f/d/e/ c/d/e/f/ | %65
 g/a/f/g/ e/^f/g/a/ b z z c' | c' z z b c' e/f/ gc/d/ | e2 ad- dd gc- | c/cB/ A/dc/ B2 cd | %69
 e4- e/f/g/a/ g/^c/d/e/- | f4 e2- e/ed/ | c2- c/B/c/d/ e/=f/e/d/ c/a/e/=g/ | %72
 f/g/f/e/ d/b/^f/a/ ^g/e/b/g/ e/g/B/=d/ | c2 B2 A/B/c/A/ dc | B2 e/=f/d/e/ c/A/B/c/ PA>G | %75
 G2 z2 z4 | z4 z2 z/ c/C/c/ | z/ B/A/G/ z/ a/A/a/ z/ g/f/e/ f/A/B/f/ | %78
 e/G/A/e/ d/^F/G/d/ c/E/^F/c/ B/^D/E/B/ | c/E/^F/E/ ^D/c/B/A/ G/A/^F/G/ PF>E | %80
 E/^F/E/F/ G/A/G/A/ B2 ^c2 | d2 B2 c2 z2 | x4 z4 | x4 z4 | z/ c/C/c/ c/d/c/d/ B/B/B,/B/ B/c/B/c/ | %85
 A/D/A/d/ A/B/A/B/ G/A/G/A/ B/A/B/^c/ | d^fga- a/d/e/f/ g2 | e2- e/dd/ c2- c/cc/- | %88
 c/c/B/A/ B2 A2 B2- | BA/G/ A2- AG/^F/ G/A/B/A/ | GABg- g/g/=f/e/ f/e/f/g/ | %91
 e4- e/e/d/^c/ d/e/f/A/ | B/G/A/B/ =c/d/e/f/ d/g/G/g/ g/a/g/a/ | %93
 f/f/F/f/ f/g/f/g/ e/G/c/d/ e/G/c/d/ | e/f/d/e/ c/d/e/f/ g/a/f/g/ e/f/g/a/ | %95
 b/d/e/f/ e/g/a/_b/ a/c/d/A/ =B/d/f/d/ | e/f/e/d/ c/c'/b/a/ ^f2 g2 | a2 z2 B/d/B/G/ e/B/G/E/ | %98
 c/e/c/A/ ^f/c/A/^F/ d/f/d/B/ g/d/B/G/ | e/g/e/c/ a/e/c/A/ ^f/a/f/d/ g/d/B/d/ | %100
 c/d/B/c/ A/B/c/d/ B/G/g/B/ c2- | c/B/c/d/ _B/=f/e/d/ ^c2 z e | %102
 f/d/e/f/ B/d/G/B/ e/c/d/e/ A/c/F/A/ | d/B/c/d/ G/B/E/G/ c/A/B/c/ F/A/D/c/ | %104
 B2 z2 z/ f/e/d/ c/A/B/c/ | B/c/B/A/ G/A/F/G/ E2- E/E/D- | D/F/E/D/ C/E/D/C/ G/B/A/G/ c/e/d/c/ | %107
 f/g/f/e/ d/f/e/d/ g/a/g/f/ e/g/c/e/ | g z g z e z e z | %109
 d4 !breath!z/ c/[Q:1/4=85]B/c/[Q:1/4=90] B/c/[Q:1/4=95]B/c/ | %110
[Q:1/4=100] B/c/[Q:1/4=105]B/c/[Q:1/4=70] PB>A B2 z/4[Q:1/4=80] G/4A/4B/4c/4d/4e/4f/4 | %111
[Q:1/4=70] _e4- e4- | e/f/_e/d/[Q:1/4=66] c<[Q:1/4=63]e-[Q:1/4=60] e/=f/e/f/ Te3/2d/4c/4 | %113
!ff! c/[Q:1/4=70]B/A/G/ F/E/D/4E/4F/[Q:1/4=30] !fermata!c4 |] %114
V:2
 z8 | z8 | z8 | z8 | z8 | z8 | z8 | z8 | z8 |[K:treble] z/ G,/C/G,/ C/C/E/C/ G,/C/E/C/ E/E/G/E/ | %10
 C/E/G/E/ C/E/G/E/ CDEF | E CDE FGA=B | c [EA][EA][EA] [EA]2 z G | G2 z G G2 z2 | %14
 z/ C/E/C/ E/G,/C/G,/ C/E/D/F/ EF | ECD=B, EFGF | E/G/E/G/ E/G/E/G/ E/G/E/G/ E/G/E/G/ | %17
 E/B/_G/B/ E/B/G/B/ E/B/G/B/ E/G/E/G/ |[K:bass] z/ C/E/C/ F/C/A,/C/ F,/C/E/C/ F/C/A,/C/ | %19
 F,/F/E/D/ C/_B,/A,/G,/ F,/D/C/B,/ A,/C/B,/E/ | F z z2 z4 | x8 | x8 |x3x/B,/ A,/B,/A,/B,/ x2 | x8 | %25
 x8 | z2 A, z A, z C z | D z z2 E z z2 | F z z2 z4 | x6 D _B, | C z z C _B,A, C z | %31
 F,/F/E,/E/ D,/D/C,/C/ _B,,/_B,/A,,/A,/ G,/F,/G,/E,/ | x2 z/ G,/A,/_B,/ A, x3 | D2 z G, C2 z C | %34
 C2 D2 G, z z2 | E z z2[K:treble] A z z2 | B z z2 z4 |[K:bass] x4 D2- Dx | %38
 x4 x3/2 B,/4A,/4 G,/4C/4B,/4A,/4G,/4F,/4E,/4D,/4 | !fermata![E,G,]8 |][M:4/4] z8 | z8 | z8 | z8 | %44
 z8 |[K:treble]!mp! z/ G/G,/G/ G/A/G/A/ F/F/F,/F/ F/G/F/G/ | %46
 E/G,/C/D/ E/G,/C/D/ E/D/C/D/ E/F/E/F/ | G2- G/G/D/E/ F/G/E/F/ D>C | %48
 z/[K:bass] C/C,/C/ C/D/C/D/ _B,/B,/B,,/B,/ B,/C/B,/C/ | %49
 A,/C,/F,/G,/ A,/C,/F,/G,/ A,/_B,/G,/A,/ F,/G,/A,/=B,/ | C4- C2 B,2 | x2 D2- Dx x2 | %52
 B,/G,/C/E,/ A,/F,/_B,/D,/ G,/E,/A,/G,/ F,/A,/G,/F,/ | G, z z A, G,/x/G,/ x2 x/ | z8 | z8 | %56
 z/ D/D,/D/ D/E/D/E/ C/C/C,/C/ C/D/C/D/ | B,/D,/G,/A,/ B,/D,/G,/A,/ B,/C/A,/B,/ G,/A,/B,/C/ | %58
 D2 z/ D,/C,/B,,/ E,2- E,/D,/E,/^F,/ | G,2- G,/G,,/A,,/B,,/ C,3 D, | E,3 B,, C,2 D,2 | %61
 E,/E/D/C/ B,/A,/G,/B,/ CA,DD, | G, z z E E z z D | E z z C C z z B, | C z z2 z4 | %65
[K:treble] E/F/D/E/ C/D/E/^F/ G z z A, | D z z[K:bass] G, C2- C>B, | %67
 A,/B,/A,/G,/ ^F,/G,/E,/F,/ G,/A,/G,/=F,/ E,/F,/D,/E,/ | x4 z/ B,A,G,F,/ | E,<xx2xDED | %70
 ^C/ x3/2 E/F/C/D/ ^G,4 | A,3[K:treble] B,xE A2- | A2 B4 ^GE- | %73
 E/C/F/E/ =D/B,/E/D/ C[K:bass] A,B,A, | D2 CB, A,G, D2 | B,2 z/ C/B,/C/ D2 z/ B,/A,/B,/ | %76
 CE,/F,/ G,/B,/C/D/ E/C/B,/A,/ G,A, | B,E- ED- DC D2 | C2 B,2 A,2- A,G,- | G,^F,- F,^D, E,3 D, | %80
x4x/x/G,/ x/ x2 |x/x/F,/ x/ x6 | G,/A,/B, A,/B,/C/D/ B,/C/A,/B,/ G,/A,/B,/C/ | %83
 DCB,G, C/D/C/B,/ A,G,- | A,4 G, z z2 | ^F,/^F,,/F,/F,/ F,/G,/F,/G,/ E,/F,/E,/F,/ G,/F,/G,/E,/ | %86
 D,/D/D,/D/ E/E,/^F/^F,/ G2- G/G,/A,/B,/ | C3 B, A,3 G, | ^F,2 G,/A,/B,/C/ D/D/D,/D/ D/E/D/E/ | %89
 C/C/C,/C/ C/D/C/D/ B,/D,/G,/A,/ B,/D,/G,/A,/ | B,/C/A,/B,/ G,/A,/B,/C/ (D4 | %91
[K:treble] D/)D/E/D/ ^C/D/B,/C/ F4- | F2 EC- C2 B,2 | C3 D E>F GE/F/ | %94
 G/A/F/G/ E/F/G/F/ E/F/D/E/ C/D/E/F/ | G[K:bass] B,CE FDGG, | CDEC- Cx z2 | x2 z ^F G2 z B, | %98
 E2 z C ^F2 z D | G2 z[K:treble] E A2 D2 | E G2 F- F2 z/ E/D/C/ | D3 G- G/E/=F/G/ ^C/E/A,/C/ | %102
 D2 z[K:bass] D C2 z C | B,2 z B, A,2 z A, | G,2x/D/C/B,/ z2 ^F2 | G=FED C2 A,B, | G,4 F,2 E,2 | %107
 B,4 C4 | %108
[K:treble] G/4A/4B/4c/4B/4A/4G/4F/4 E/4F/4G/4A/4G/4F/4E/4D/4 C/4D/4E/4F/4E/4D/4C/4B,/4 A,/4B,/4C/4D/4C/4B,/4A,/4G,/4 | %109
 D4 z4 | z4 z/4 A/4G/4F/4E/4D/4C/4B,/4 E2 |[K:bass] z2 z/ C/_E/G,/ C/_E,/G,/C,/ E,/A,,/C,/F,,/ | %112
 G,,4 z2 G,2 | G, z z2!fff! !fermata!G,4 |] %114
V:3
 z/!fff! G,,/C,/G,,/ C,/G,,/C,/G,,/ C,C,/G,,/ E,/C,/E,/C,/ | %1
 E,E,/C,/ G,/E,/G,/E,/ G,E,/G,/ C,/C/G,/C/ | C,/C/G,/C/ E,/G,/E,/G,/ C,/C/G,/C/ E,/C/G,/C/ | %3
 A,/C/F,/C/ G,/C/E,/C/ A,/C/F,/C/ G,/C/E,/G,/ | %4
 F,/A,/C,/A,/ E,/G,/C,/G,/ F,/A,/C,/A,/ E,/G,/C,/G,/ | %5
 E,/G,/C,/G,/ D,/G,/G,,/F,/ E,/G,/C,/E,/ D,/G,/G,,/F,/ | %6
 E,/C/G,/_B,/ A,/C/F,/A,/ G,/_B,/E,/G,/ F,/A,/D,/F,/ | %7
 E,/G,/C,/E,/ A,,/F,/F,,/D,/ B,,/G,/E,/C/ A,/F,/G,/D,/ | %8
 E,/C,/G,/D,/ E,/C,/F,/A,,/ B,,/A,,/B,,/A,,/ B,,/4A,,/4B,,/4A,,/4B,,/4A,,/4B,,/4G,,/4 | %9
 C,C,, z2 z4 | z8 | z8 | z4 z/ G,,/C,/G,,/ C,/C,/E,/C,/ | %13
 G,,/C,/E,/C,/ E,/E,/G,/E,/ C,/G,/C/G,/ C/G,/C/G,/ | C2 z2 z4 | z8 | z CB,A, G,F,E,D, | %17
 C,2 z C, C,_B,,A,,G,, | F,, z z2 F,, z z2 | F,, z z2 z4 | %20
 z/ F,,/A,,/F,,/ C,/A,,/C,/A,,/ C,/F,,/F,/C,/ F,/A,,/C,/F,,/ | F,/C,/A,/F,/ C/G,/A,/E,/ F, z z2 | %22
 G,, z z2 G,, z z2 | G,, z z2 z4 | G,, z z2 G,, z z2 | G,, z z2 G,, z z2 | G,, z z2 z4 | %27
 z/ G,,/G,/G,,/ G,/D,/G,/=F,/ E,/C,/C/C,/ C/G,/C/_B,/ | A,2 z2 z4 | z8 | z8 | z8 | z8 | %33
 F,,2 z F, E,2 z C, | F,2 ^F,2 G, z z2 | G,, z z2 z4 | G,, z z2 z4 | G,,8 | [C,,C,]8- | %39
 !fermata![C,,C,]8 |][M:4/4] z8 | z8 | z8 | z8 | z8 | z8 | z8 | z8 | z8 | z8 | z8 | z8 | z8 | z8 | %54
 z8 | z8 | z8 | z8 | z8 | z8 | z8 | z8 | %62
 z/!f! G,/G,,/G,/ G,,/G,/G,,/G,/ F,,/F,/F,,/F,/ F,,/F,/F,,/F,/ | E,, z z E, D, z z G,, | %64
 C,, z z2 z4 | z8 | z8 | z8 | z8 | z8 | z8 | z8 | z8 | z8 | z8 | %75
 z/ G,/G,,/G,/ G,/A,/G,/A,/ =F,/F,/F,,/F,/ F,/G,/F,/G,/ | E,/G,,/C,/D,/ E,/G,,/C,/D,/ C,D,E,^F, | %77
 G,2 =F,2 E,2 D,G, | C,^F,B,,E, A,,D, G,,2 | A,,2 B,,2 C,A,, B,,2 | E,,2 z2 E,2 A,,2 | %81
 D,2 G,,2 C,2 z2 | z8 | z8 | z8 | z8 | z8 | z8 | z8 | z8 | z8 | z8 | z8 | z8 | z8 | z8 | z8 | z8 | %98
 z8 | z8 | z8 | z8 | z8 | z8 | z8 |!ff! G,,8- | G,,8- | G,,8- | G,,8- | G,,4 z4 | z4 G,,4- | %111
 G,,8- | G,,8 | C, z z2 !fermata!C,,4 |] %114
V:4
 x8 | x8 | x8 | x8 | x8 | x8 | x8 | x8 | x8 | x8 | x8 | x8 | x4 e2 x c | e2 x e e2 x2 | x8 | %15
 G/_B/E/G/ F/A/D/F/ x4 | x8 | x8 | A2 z2 A z z2 | A z z2 z4 | f z z2 z4 | z4 z/ c/_B/c/ A/G/F/E/ | %22
 D/B/A/B/ G/F/E/D/ C/A/G/A/ F/E/D/C/ | B,/G/F/G/ E/D/C/x/ x2 C/D/B,/C/ | D z z2 z/ B/A/G/ ^F z | %25
 z/ A/G/=F/ E z z/ E/D/C/ B, z | z/ D/C/B,/ D2 z/ B/A/G/ ^F z | d z z2 e z z2 | x8 | %29
 c _B A G F E x E | FGA_B cde z | x8 | x5 z z/4 G/4A/4=B/4c | B2 z B c2 z c | c2 c2 B z z2 | %35
 e z z2 d z z2 | g z z2 x4 | x F G^Fx2x=F- | FE/D/ E/ z/ z x4 | x8 |][M:4/4] x4 z4 | x4 z4 | %42
 z/ c/C/c/ c/d/c/d/ _B/B/_B,/B/ B/c/B/c/ | A/C/F/G/ A/C/F/G/ A/=B/G/A/ F/G/A/B/ | %44
 c z/ B/ c z/ G/ C z/ G/ c/B/c/A/ | B>e e/f/e/f/ d>d d/e/d/e/ | c2 c2 c2 z c- | %47
 c/c/B/A/ B2- B c2 B | c z/ E/ E/F/E/F/ D>D D/E/D/E/ | C2 C2 CE F2- | F2 E2 D2 D2 | E2x2xG- G=F- | %52
 FE- ED- DC- C=B, | x9/2 G/x/G/ G/A/G/A/ | F/E/F/G/ F/G/F/G/ E/ e/E/e/ e/f/e/f/ | %55
 dcBG c/d/c/B/ AG- | G^F B/c/B/c/ A>A A/B/A/B/ | G2 G2 G^F G2- | G/G/^F/E/ F2 G3 A | %59
 D3 D E2- E/E/D/C/ | B,2- B,/D/C/D/ E2 z/ ^F3/2 | GA B>B A G2 ^F | G z z B c z z A | x8 | x8 | %65
 z4 z/ g/G/g/ g/a/g/a/ | =f/ f/F/f/ f/g/f/g/ e/ G/c/d/ e/G/A/B/ | c3 c BB- B2 | AGFE D2 EF | %69
 c4- c x3 | e3 d d/=c/B/d/ cB- | B/E/^F/^G/ A2 Ax x2 | x6 B2- | B A2 ^G E2 z/ =G^F/ | %74
 G2 GG ^FG- G>F | G2 x6 | x8 | x8 | x8 | x8 | z4 z/ G/x/G/ G/A/G/A/ | %81
 =F/F/x/F/ F/G/F/G/ E/G,/C/D/ E/G,/C/D/ | E/F/D/E/ C/D/E/F/ G2 z G | %83
 F/G/E/F/ G/A/G/F/ E/F/E/D/ C/D/C/B,/ | x8 | x4 z4 | z dd=c B4- | B/B/A/G/ ^FG- G/G/A/G/ ^FE | %88
 D2- DG- G^F/E/ F/G/F/G/ | E2- E/^F/E/F/ D4- | D^F G2 A4 | G4 x4 | x8 | x8 | x8 | x8 | %96
 z4 z/ d/D/d/ d/e/d/e/ | c/B/A/B/ c/d/c/d/ x4 | x8 | x8 | x8 | x8 | x8 | x8 | z/ A/G/F/ E/x/ x5 | %105
 x8 | x8 | x8 | e z e z c z c z | c4 x4 | x8 | z/ G/A/B/ c2- c4 | z2 c3/2 c/- c3 =F | G z x2 G4 |] %114
V:5
 x8 | x8 | x8 | x8 | x8 | x8 | x8 | x8 | x8 | x8 | x8 | x8 | x4 c2 x2 | c2 x c c2 x2 | x8 | x8 | %16
 x8 | x8 | x8 | x8 | c x7 | x8 | x8 | x8 | z/ A/G/=F/ E x5 | x8 | x8 | B z z2 c z z2 | x8 | %29
 A G F E D C x2 | x8 | x8 | x8 | G2 x G G2 x G | A2 A2 G x3 | c x3 c x3 | B x7 | x B x6 | %38
 G2- G/ x11/2 | x8 |][M:4/4] x8 | x8 | x8 | x8 | x8 | x8 | x8 | x8 | x8 | x8 | x8 | x8 | x8 | x8 | %54
 x8 | x8 | x8 | x8 | x8 | x8 | x8 | x8 | x3 G A x2 F | x8 | x8 | x8 | x8 | x8 | x8 | G4- Gx x2 | %70
 x8 | x8 | x8 | x8 | x8 | x8 | x8 | x8 | x8 | x8 | x8 | x8 | x8 | x8 | x8 | x8 | x8 | x8 | x8 | %89
 x8 | x8 | x8 | x8 | x8 | x8 | x8 | x6 z G- | G2 x6 | x8 | x8 | x8 | x8 | x8 | x8 | x8 | x8 | x8 | %107
 x8 | c x c x G x A x | A4 x4 | x8 | x8 | x3 A z2 z x | =E z z2 E4 |] %114
V:6
 x8 | x8 | x8 | x8 | x8 | x8 | x8 | x8 | x8 |[K:treble] x8 | x8 | x8 | z CCC C2 x E | x8 | x8 | %15
 x4 CDED | CCCC CCCC | C z C z C z C z |[K:bass] x8 | x8 | x8 | x8 | x8 | x8 | x8 | x8 | x6 A, x | %27
 B, z z2 C z z2 | C z z2 z4 | x6 _B, G, | F, z z A, G,F, G, z | x8 | F,/C,/D,/E,/ F, z z/ x7/2 | %33
 B,2 x G, G,2 x C | A,2 A,2 B, x3 | C x3[K:treble] ^F x3 | G x7 |[K:bass] B,2 C2 D2 G,2 | G,4 z4 | %39
 x8 |][M:4/4] x8 | x8 | x8 | x8 | x8 |[K:treble] x8 | x8 | x8 | C[K:bass] x7 | x8 | x8 | %51
 A,/B,/A,/G,/ ^F,2 G,/A,/B,/C/ D/E/=F/A,/ | x8 | E, z z ^F, G, z z2 | x8 | x8 | x8 | x8 | x8 | x8 | %60
 x8 | x8 | x3 B, C z z A, | C z z G, A, z z G, | G, E/G,/ C/D/E/G,/ C/D/B,/C/ A,/B,/C/D/ | %65
[K:treble] x8 | x3[K:bass] x5 | x8 | F,3 F, G,F,E,D, | C,/D,/E,/F,/ G,/A,/B,/C/ _B,4 | %70
 A,/=B,/^C/D/ x6 | x3[K:treble] x C3 ^C | D3 ^D E2 x2 | x5[K:bass] x D2- | G,/A,/B,/G,/ x6 | x8 | %76
 x8 | x8 | x8 | x8 | E,2 E,/^F,/E,/F,/ G,2 E,2 | D,2 D,G,- G,/F,/E,/F,/ G,/F,/E,/F,/ | x8 | x8 | %84
 G,2 ^F,2 G,/G,/G,,/G,/ G,/A,/G,/A,/ | x8 | x8 | x8 | x8 | x8 | x8 |[K:treble] x4 D4 | G,8 | %93
 A,3 B, C4 | x8 | x[K:bass] x7 | x8 | A,2 z D G,2 z G, | A,2 z A, B,2 z B, | %99
 C2 x[K:treble] C- C2 B,2 | A,B,CD G,2 A,2 | ^F,2 G,2 A,2 z G, | =F,2 z[K:bass] B, G,2 z A, | %103
 F,2 z G, E,2 z F, | G,,2 z2 A,4 | G,4 G,/G,/A,/E,/ F,>G, | E,4 D,2 C,2 | D,4 E,4 |[K:treble] x8 | %109
 A,4 x4 | x6 C2 |[K:bass] x8 | x8 | =E, z z2 E,4 |] %114
V:7
 x8 | x8 | x8 | x8 | x8 | x8 | x8 | x8 | x8 | x8 | x8 | x8 | x8 | x8 | x8 | x8 | x8 | x8 | x8 | %19
 x8 | A x7 | x8 | x8 | x8 | x8 | x8 | x8 | G z z2 G z z2 | x8 | x8 | x8 | x8 | x8 | x3 D E2 x E | %34
 F2 ^F2 D x3 | G x7 | x8 | x D E2 G4 | x8 | x8 |][M:4/4] x8 | x8 | x8 | x8 | x8 | x8 | x8 | x8 | %48
 x8 | x8 | x8 | x8 | x8 | x8 | x8 | x8 | x8 | x8 | x8 | x8 | x8 | x8 | x4 =F x3 | x8 | x8 | x8 | %66
 x8 | x8 | x8 | x8 | x8 | x8 | x8 | x8 | x8 | x8 | x8 | x8 | x8 | x8 | x8 | x8 | x8 | x8 | x8 | %85
 x8 | x8 | x8 | x8 | x8 | x8 | x8 | x8 | x8 | x8 | x8 |x4xC B,2 | x8 | x8 | x8 | x8 | x8 | x8 | %103
 x8 | x8 | x8 | x8 | x8 | x8 | x8 | x8 | x8 | x3 A/c/4^F/4 G4 | C x3 C4 |] %114
V:8
 x8 | x8 | x8 | x8 | x8 | x8 | x8 | x8 | x8 |[K:treble] x8 | x8 | x8 | x8 | x8 | x8 | x8 | x8 | %17
 x8 |[K:bass] x8 | x8 | x8 | x8 | x8 | x8 | x8 | x8 | x8 | G, x3 G, x3 | A, x7 | x8 | x6 E, x | %31
 x8 | x8 | G,2 x2 z4 | x8 | x4[K:treble] x4 | x8 |[K:bass] x8 | x8 | x8 |][M:4/4] x8 | x8 | x8 | %43
 x8 | x8 |[K:treble] x8 | x8 | x8 | x/[K:bass] x15/2 | x8 | x8 | x8 | x8 | x8 | x8 | x8 | x8 | x8 | %58
 x8 | x8 | x8 | x8 | x3 G, A, x2 F, | G, x6 D, | C, x7 |[K:treble] x8 | x3[K:bass] x5 | x8 | x8 | %69
 x8 | x8 | x3[K:treble] x5 | x8 | x5[K:bass] x3 | x8 | x8 | x8 | x8 | x8 | x8 | x8 | x8 | x8 | x8 | %84
 x8 | x8 | x8 | x8 | x8 | x8 | x8 |[K:treble] x8 | x8 | x8 | x8 | x[K:bass] x7 | x8 | x8 | x8 | %99
 x3[K:treble] x5 | x8 | x8 | x2 z[K:bass] F, E,2 z E, | D,2 z D, C,2 z D, | x8 | x8 | x8 | x8 | %108
[K:treble] x8 | ^F,4 x4 | x8 |[K:bass] x8 | x8 | x4 C,4 |] %114
V:9
 x8 | x8 | x8 | x8 | x8 | x8 | x8 | x8 | x8 |[K:treble] x8 | x8 | x8 | x8 | x8 | x8 | x8 | x8 | %17
 x8 |[K:bass] x8 | x8 | x8 | x8 | x8 | x8 | x8 | x8 | x8 | x8 | x8 | x8 | x8 | x8 | x8 | x8 | x8 | %35
 x4[K:treble] x4 | x8 |[K:bass] x8 | x8 | x8 |][M:4/4] x8 | x8 | x8 | x8 | x8 |[K:treble] x8 | x8 | %47
 x8 | x/[K:bass] x15/2 | x8 | x8 | x8 | x8 | x8 | x8 | x8 | x8 | x8 | x8 | x8 | x8 | x8 | x8 | %63
 E, x7 | x8 |[K:treble] x8 | x3[K:bass] x5 | x8 | x8 | x8 | x8 | x3[K:treble] x5 | x8 | %73
 x5[K:bass] x3 | x8 | x8 | x8 | x8 | x8 | x8 | x8 | x8 | x8 | x8 | x8 | x8 | x8 | x8 | x8 | x8 | %90
 x8 |[K:treble] x8 | x8 | x8 | x8 | x[K:bass] x7 | x8 | x8 | x8 | x3[K:treble] x5 | x8 | x8 | %102
 x3[K:bass] x5 | x8 | x8 | x8 | x8 | x8 |[K:treble] x8 | x8 | x8 |[K:bass] x8 | x8 | x8 |] %114

